assets/img/docs.svg

<svg width="285" height="348" viewBox="0 0 285 348" fill="none" xmlns="http://www.w3.org/2000/svg">
<path d="M158.002 127.598H63.2539V159.853H158.002V127.598Z" fill="#282828"/>
<path d="M158.002 190.088H63.2539V222.343H158.002V190.088Z" fill="#282828"/>
<path d="M254.761 317.094H95.5024V284.839H222.506V95.3423H254.761V317.094ZM222.506 63.0875V0.59375H63.2476L33.0087 32.8486H192.267V254.6H33.0087V32.8486L0.753906 63.0875V284.839H63.2476V347.333H284.999V63.0875H222.506Z" fill="#282828"/>
</svg>

<svg width="285" height="348" fill="none" xmlns="http://www.w3.org/2000/svg"><path d="M158.002 127.598H63.254v32.255h94.748v-32.255Zm0 62.49H63.254v32.255h94.748v-32.255Z" fill="#282828"/><path d="M254.761 317.094H95.502v-32.255h127.004V95.342h32.255v221.752ZM222.506 63.088V.594H63.248l-30.24 32.255h159.259V254.6H33.009V32.849L.754 63.088v221.751h62.494v62.494h221.751V63.087h-62.493Z" fill="#282828"/></svg>
